packages/ffe-icons/icons/open/300/sm/tour.svg

<svg xmlns="http://www.w3.org/2000/svg" height="20" viewBox="0 -960 960 960" width="20"><path d="M253.999-394.001v261.718q0 11.033-7.418 18.657-7.418 7.625-18.384 7.625-10.966 0-18.581-7.475-7.615-7.474-7.615-18.524v-696q0-11.05 7.418-18.524 7.418-7.475 18.384-7.475 10.966 0 18.581 7.475 7.615 7.474 7.615 18.524v70.001h495.154q18.077 0 27.231 15.269 9.153 15.269.923 31.346L709.23-576l68.077 135.384q8.23 16.077-.923 31.346-9.154 15.269-27.231 15.269H253.999Zm0-312v260.002-260.002Zm226.213 192q25.942 0 43.864-18.135 17.923-18.135 17.923-44.076 0-25.942-18.135-43.864-18.135-17.923-44.076-17.923-25.942 0-43.864 18.135-17.923 18.135-17.923 44.076 0 25.942 18.135 43.864 18.135 17.923 44.076 17.923Zm-226.213 68.002h459.617L649.77-576l63.846-130.001H253.999v260.002Z"/></svg>

<svg xmlns="http://www.w3.org/2000/svg" height="20" viewBox="0 -960 960 960" width="20"><path d="M254-394v261.72q0 11.03-7.42 18.65-7.42 7.63-18.38 7.63-10.97 0-18.58-7.48Q202-120.95 202-132v-696q0-11.05 7.42-18.52 7.42-7.48 18.38-7.48 10.97 0 18.58 7.48Q254-839.05 254-828v70h495.15q18.08 0 27.23 15.27 9.16 15.27.93 31.35L709.23-576l68.08 135.38q8.23 16.08-.93 31.35Q767.23-394 749.15-394H254Zm0-312v260-260Zm226.21 192q25.94 0 43.87-18.14Q542-550.27 542-576.21t-18.14-43.87Q505.73-638 479.79-638t-43.87 18.14Q418-601.73 418-575.79t18.14 43.87Q454.27-514 480.21-514ZM254-446h459.62l-63.85-130 63.85-130H254v260Z"/></svg>
